X:1
T:Christ lag in Todesbanden
C:J.S. Bach
M:3/8
L:1/8
Q:1/8=108
%%staves {1 2 3}
K:C
V:1
%%MIDI program 40
z|z3|z3|z3|zzd|d^cd/e/|f/d/^c/d/g|fTe2|
V:2
%%MIDI program 41
z|z3|z3|z3|z3|z3|z3|z3|
V:3
%%MIDI program 43
A,|A,^G,A,/B,/|C/A,/^G,/A,/D|CTB,2|A,=G,/F,/E,/F,/|G,/_B,/A,/G,/F,/E,/|D,F,_B,|A,/G,/A,/_B,/A,/G,/|
V:1
d/e/d/c/=B/c/|d/f/e/d/c/B/|c/B/c/d/e/f/|e/d/e/^f/^g/a/|b/=f/e/f/b-|b/c'/b/a/^g/a/-|a/b/a/^g/^f/g/|
V:2
A3|^G3|A2B|c3|d3|c3|B3|
V:3
F,/G,/F,/E,/D,/C,/|=B,,E,E,,|A,,A,^G,|A,A,,A,|A,^G,A,/B,/|C/A,/^G,/A,/D-|D^DE|
V:1
azd|d^cd/e/|=f/d/^c/d/g|fTe2|df_B|A/=B/^c/d/B/c/|def-|
V:2
A3-|A3-|A2z|z3|z3|A2G|F3|
V:3
A,=G,/=F,/E,/F,/|G,/_B,/A,/G,/F,/E,/|D,F,_B,|A,/G,/A,/_B,/A,/G,/|F,/D,/^C,/D,/G,|F,TE,2|D,/D/=C/_B,/A,/C/|
V:1
fe/d/e-|e/e/d/^c/B/c/|d/e/d/=c/_B/A/|Gzd|d^cd/e/|1f/d/^c/d/g|fef/g/|
V:2
G3|A2G|F3|E3-|E3|D3-|D3-|
V:3
_B,/D/C/B,/A,/G,/|F,G,A,|_B,,C,D,-|D,/F,/E,/D,/^C,/=B,,/|A,,z/A,/B,/^C/|DF,_B,-|B,/A,/G,/_B,/A,/G,/|
V:1
a/f/e/f/_b|aTg2-|g/e/f/g/a/f/|de^c|d2:|2f/d/^c/d/g-|g^fg/a/|
V:2
D3-|D2z|z3|z3|z2|D3-|D3-|
V:3
F,D,G,|F,E,A,|D,/^C,/D,/E,/F,/D,/|_B,,G,,A,,|D,,2|DF,_B,|A,/G,/A,/C/_B,/A,/|
V:1
_b/g/=f/g/c'/b/|a/f/e/f/_b/a/|g/e/d/e/a/g/|f/e/f/g/a/f/|de^c|d2z|z3|
V:2
D2z|z3|z3|z3|z3|z3|z3|
V:3
G,_B,E,|F,A,D,|E,G,^C,|D,/^C,/D,/E,/F,/D,/|_B,,G,,A,,|D,,D,/E,/F,/D,/|G,D,/^C,/D,/E,/|
V:1
z3|zA/B/c/A/|dA/^G/A/B/|c/d/~d3/c//d//|e/f/e/d/c/B/|cde|A/_B/A/G/F/E/|
V:2
z3|z3|z3|z3|z3|z3|z3|
V:3
F,/G,/~G,3/F,//G,//|A,2G,|^F,2=F,|E,F,G,|C,D,E,|A,,/_B,,/A,,/G,,/F,,/E,,/|F,,G,,A,,|
V:1
FA/=B/^c/A/|d2=c|=B2_B|Ad2-|d/e/d/^c/d/_B/|G/f/e/d/e/=c/|A/g/f/e/f/d/|
V:2
D2E|F^F2|G3|D2E|F3|G3|A3-|
V:3
D,,2z|zD/C/_B,/D/|G,D,/^C,/D,/E,/|F,/G,/~G,3/F,//G,//|A,2_B,|=B,2=C|^C2D|
V:1
^cag|^f2=f|ed/c/B/A/|^GAB|E/f/e/d/c/B/|^cde|A/_b/a/g/f/e/|
V:2
A3-|A2z|z3|z3|z3|z3|z3|
V:3
A,A,,/B,,/^C,/A,,/|D,A,,/^G,,/A,,/B,,/|=C,/D,/~D,3/C,//D,//|E,/F,/E,/D,/C,/B,,/|C,D,E,|A,,/_B,/A,/G,/F,/E,/|F,G,A,|
V:1
fga-|a/a/g2-|g/f/e/g/f/e/|d/a/=b/=c'/b/a/|^g/a/b2-|bea-|aT^g2|
V:2
A3|d3|^c3|d3|e2d|c3|B3|
V:3
D,/E,/D,/C,/_B,,/A,,/|_B,,E,,/F,,/G,,/E,,/|A,,A,G,|^F,2=F,|E,E,,/^F,,/^G,,/E,,/|A,,/^G,,/A,,/B,,/C,/A,,/|D,/C,/D,/F,/E,/D,/|
V:1
z/a/=g/f/e/g/|f/d/T^c2|z/d/=c/_B/A/c/|_B/G/T^F2|G/g/=f/e/d/f/|e/c/T=B2|c/c'/_b/a/g/b/|
V:2
A3-|A3-|A3|z3|z3|z3|z3|
V:3
C,2^C,|D,E,/F,/G,/E,/|F,2^F,|G,A,/_B,/C/A,/|_B,2=B,|C/C,/D,/E,/F,/D,/|E,G,C,|
V:1
a/f/e/d/^c/e/|d/_b/a/g/f/a/|g/e/d/^c/=B/d/|^c/a/g/f/e/g/|f/d/=c/B/A/c/|B/g/f/e/d/f/|e/d/e/f/g-|
V:2
z3|z3|z3|z3|z3|B3|c2_B|
V:3
F,G,A,|_B,CD|E,F,G,|A,=B,^C|D,E,F,|G,G,,z|zC,/D,/E,/C,/|
V:1
gf2-|f/e/d/a/g/a/|_Bge-|eAd-|d^c/d/e/c/|d2=c|=B2_B|
V:2
A2=B|c3|G3|F3|E3|D3-|D3-|
V:3
F,C,/B,,/C,/D,/|E,/^F,/~F,3/E,//F,//|G,/=F,/E,/F,/G,/E,/|A,/G,/F,/D,/E,/F,/|G,/A,/~A,3/G,//A,//|_B,D,/E,/^F,/D,/|G,D,/^C,/D,/E,/|
V:1
A/d/e/f/g/e/|^c/e/f/g/a/f/|d/f/g/a/_b/g/|e/g/a/_b/c'/a/|^f/a/d/e/f/d/|gd/^c/d/e/|=f/g/~g3/f//g//|
V:2
Dzz|z3|z3|z3|z3|z3|z3|
V:3
=F,/G,/~G,3/F,//G,//|A,G,F,|_B,A,G,|CC,C-|C_B,A,|_B,/C/B,/A,/B,/G,/|D/C/_B,/A,/B,/C/|
V:1
acf-|fe/d/e-|ed/^c/d-|d^c/=B/c|dA/_B/=c/A/|dG/^F/G/A/|_B/c/~c3/B//c//|
V:2
A3|G3|F3|E3|D3-|D3-|D2z|
V:3
F,/E,/F,/G,/A,/F,/|CG,/F,/G,/A,/|_B,/C/B,/A,/G,/F,/|G,/_B,/A,/G,/F,/E,/|F,/E,/^F,/G,/A,/F,/|_B,/A,/B,/C/B,/A,/|G,/_B,/A,/G,/^F,/A,/|
V:1
d/g/^f/e/d/c/|_B/A/G/=F/E/D/|A3-|A3-|A3-|A/d/=c/_B/A/c/|=B3/^c/d/e/|
V:2
z3|zzz/D/-|D^CD/E/|F/D/^C/D/G|FE2|D3-|DGF|
V:3
_B,,C,D,|G,,A,,_B,,|A,,/_B,,/A,,/G,,/F,,/E,,/|D,,F,^C,|D,/D/=C/_B,/A,/C/|_B,^F,2|=F,/G,/F,/E,/D,/=C,/|
V:1
f2z|_BAz|Ad^G-|GAz|F=GE|D2||
V:2
A^Gz|=G2z|F3-|FEz|DE^C|D2||
V:3
=B,,2z|^C,2z|D,/=C,/=B,,/C,/D,/B,,/|^C,2z|D,G,,A,,|D,,2||
